X:524
%%etbk:tnset id:254,pos:1,rep:3x,ant:
%%etbk:wsite http://thesession.org/tunes/433
%%etbk:color #ffe6e6
%%etbk:pldat 2014-12-08T18:48,2014-05-14T17:27,2014-05-06T17:32,2014-04-06T16:39,2014-04-02T17:51,2014-02-08T15:34,2014-02-05T17:11,2013-12-11T20:03,2013-10-07T18:26,2013-10-04T16:17,2013-10-02T17:52,2013-10-01T18:43,2013-09-26T16:16,2013-09-17T09:53,2013-09-11T20:03
T: The Crock Of Gold
Z: Piano Box Version by Martin Fleischmann
H: Created 2013-09-11 /  Last Modified 2014-12-08
R: reel
M: 4/4
L: 1/8
K: Gmaj
|:"G"!5!B3B BAGE | !3!G3A GEDB | !1!DEGA !3!BAGA | "D"B2dB BAA2 |
"G"!5!B3B BAGE | !3!G3A GED2 | !5!g2fg !3!e!1!GG!2!E | !1!DEGA BGG2 :|
|: "am"!2!e!4!aa2 !5!bage | !4!a2ba !3!ged!2!e | !4!g!2!e!1!d!3!B !1!G!2!A!2!B!4!d | !4!e!1!G!4!d!3!B !2!B!1!AA2 |
!2!e!4!aa2 bage | a2ba gede | !4!g2fg eg!1!d!2!B | deGA BGG2 :|
| "var"g2fg egdg| GGGA BGG2 |z8|z8|


